imagens/Elementos/facebook1.svg

<svg width="80" height="80" viewBox="0 0 80 80" fill="none" xmlns="http://www.w3.org/2000/svg">
<path fill-rule="evenodd" clip-rule="evenodd" d="M0 40.2233C0 60.11 14.4433 76.6467 33.3333 80V51.11H23.3333V40H33.3333V31.11C33.3333 21.11 39.7767 15.5567 48.89 15.5567C51.7767 15.5567 54.89 16 57.7767 16.4433V26.6667H52.6667C47.7767 26.6667 46.6667 29.11 46.6667 32.2233V40H57.3333L55.5567 51.11H46.6667V80C65.5567 76.6467 80 60.1133 80 40.2233C80 18.1 62 0 40 0C18 0 0 18.1 0 40.2233Z" fill="#D32E5E"/>
</svg>

<svg width="80" height="80" fill="none" xmlns="http://www.w3.org/2000/svg"><path fill-rule="evenodd" clip-rule="evenodd" d="M0 40.223C0 60.11 14.443 76.647 33.333 80V51.11h-10V40h10v-8.89c0-10 6.444-15.553 15.557-15.553 2.887 0 6 .443 8.887.886v10.224h-5.11c-4.89 0-6 2.443-6 5.556V40h10.666l-1.776 11.11h-8.89V80C65.557 76.647 80 60.113 80 40.223 80 18.1 62 0 40 0S0 18.1 0 40.223Z" fill="#D32E5E"/></svg>
